X: 458
T: Bulut Gelir Seher ile
C: Kemal Altınkaya
O: Turkey
F: http://compmusic.upf.edu/node/140
N: gerdaniye--oyunhavasi--devrituran--bulut_gelir--
N: makam= gerdaniye
N: form= oyunhavasi
N: usul= devrituran = 7/16
M: 7/16
L: 1/16
K: C _2/4B ^3/4f  
Q: 1/4=420
%%MIDI tuningsystem comma53
g4 g4 g2 g2 g2  | g4 g4 g2 g2 g2  | g4 g4 g2 g2 g2  | \
w:  ARANAĞME  |   |   | 
g4 g4 g2 g2 g2  | g4 g4 g6  | 
w:   |  Bu lut  ge  | 
f2 g2 a2 f2 g6  | g12 f2  | f4 f4 f6  | \
w:  *  *  *  *  lir   |   |  se her_ i  | 
f2 e2 d2 e2 d6  | d14  | d4 e2 f2 g4 f2  | 
w:  le    |   |  Çi çek_ *  a  | 
a12 e2  | e4 e4 e2 e2 d2  | g4 ^2/4f2 e2 d6  | d14  | \
w:  çar   |  ba har_ i  |  *  *  *  le    |   | 
d4 e2 f2 g4 f2  | a12 e2  | e4 e4 e4 d2  | 
w:  Her kes  *  sa  |  rıl  |  mış  yâr_ i  | 
d2 c2 B2 c2 e4 d2  | c4 c4 c2 B2 d2  | \
w:  le    |  Yağ ma  yağ  | 
B2 A2 G2 A2 G6  | G14  | G8 d6  | a4 a4 g4 =f2  | 
w:  *  *  *  *  mur    |   |  *  Es  |  me  bre  de li   | 
e4 e2 d2 d6  | c4 c4 c2 B2 d2  | B4 B2 A2 A6  | \
w:  rû zi *  gâr    |  Yâ rim  yol  |  *  *  *  da  | 
A12 G2  | c4 B2 A2 A6  | A14  | A14  | 
w:   |  *  *  *  dır    |   |   | 
d4 e2 f2 g4 f2  | a12 e2  | e4 e4 e4 d2  | \
w:  Her kes  *  sa  |  rıl  |  mış  yâr_ i  | 
d2 c2 B2 c2 e4 d2  | c4 c4 c2 B2 d2  | 
w:  le    |  Yağ ma  yağ  | 
B2 A2 G2 A2 G6  | G14  | G8 d6  | a4 a4 g4 =f2  | \
w:  *  *  *  *  mur    |   |  *  Es  |  me  bre  de li   | 
e4 e2 d2 d6  | c4 c4 c2 B2 d2  | 
w:  rû zi *  gâr    |  Yâ rim  yol  | 
B4 B2 A2 A6  | A12 G2  | c4 B2 A2 A6  | A14  | A14  | \
w:  *  *  *  da  |   |  *  *  *  dır    |   |   | 
g4 g4 g2 g2 g2  | g4 g4 g2 g2 g2  | 
w:  ARANAĞME  |   | 
g4 g4 g2 g2 g2  | g4 g4 g2 g2 g2  | g4 g4 g6  | \
w:   |   |  Bu lut  ge  | 
f2 g2 a2 f2 g6  | g12 f2  | f4 f4 f6  | 
w:  *  *  *  *  lir   |   |  se her_ i  | 
f2 e2 d2 e2 d6  | d14  | d4 e2 f2 g4 f2  | \
w:  le    |   |  Çi çek_ *  a  | 
a12 e2  | e4 e4 e2 e2 d2  | g4 ^2/4f2 e2 d6  | 
w:  çar   |  ba har_ i  |  *  *  *  le    | 
d14  | d4 e2 f2 g4 f2  | a12 e2  | e4 e4 e4 d2  | \
w:   |  Her kes  *  sa  |  rıl  |  mış  yâr_ i  | 
d2 c2 B2 c2 e4 d2  | c4 c4 c2 B2 d2  | 
w:  le    |  Yağ ma  yağ  | 
B2 A2 G2 A2 G6  | G14  | G8 d6  | a4 a4 g4 =f2  | \
w:  *  *  *  *  mur    |   |  *  Es  |  me  bre  de li   | 
e4 e2 d2 d6  | c4 c4 c2 B2 d2  | 
w:  rû zi *  gâr    |  Yâ rim  yol  | 
B4 B2 A2 A6  | A12 G2  | c4 B2 A2 A6  | A14  | A14  | \
w:  *  *  *  da  |   |  *  *  *  dır    |   |   | 
d4 e2 f2 g4 f2  | a12 e2  | e4 e4 e4 d2  | 
w:  Her kes  *  sa  |  rıl  |  mış  yâr_ i  | 
d2 c2 B2 c2 e4 d2  | c4 c4 c2 B2 d2  | \
w:  le    |  Yağ ma  yağ  | 
B2 A2 G2 A2 G6  | G14  | G8 d6  | a4 a4 g4 =f2  | 
w:  *  *  *  *  mur    |   |  *  Es  |  me  bre  de li   | 
e4 e2 d2 d6  | c4 c4 c2 B2 d2  | B4 B2 A2 A6  | \
w:  rû zi *  gâr    |  Yâ rim  yol  |  *  *  *  da  | 
A12 G2  | c4 B2 A2 A6  | A14  | A14  | 
w:   |  *  *  *  dır    |   |   | 
|


